X: 3486
T: Bicycle Ride
R: reel
M: 4/4
K: Gmajor
FGBD EccB|cEGA FEDF|FGBd e2de|zgfd gfdA|
FGBD EccB|cEGA FEDF|EBBA BFG/A/B|cdeg az z2:|
bdd adf (g2|g)ceg aga/b/c'|b2ag fgd(e|e)cBc AcBA|
G2FG EFGB|c2cB cEGA|FDD GDD (A2|A)DF/G/A dfga|
bdd adf (g2|g)ceg aga/b/c'|b2ag fgd(e|e)cBc AcBA|
G2FG EFGB|c2cB cdeg|fAA gAA (f2|f)dcA FDEF||

